icons/codeigniter-light.svg

<svg width="256" height="256" viewBox="0 0 256 256" fill="none" xmlns="http://www.w3.org/2000/svg">
<rect width="256" height="256" rx="60" fill="#F4F2ED" />
<path d="M97.3576 229.967C85.1878 224.688 73.8106 211.242 73.7775 197.497C73.7445 182.507 83.1898 169.774 94.9468 161.425C93.5267 166.786 92.7671 171.7 96.2678 176.498C99.5208 180.963 105.218 183.121 110.601 181.959C123.167 179.187 123.745 165.292 116.298 157.191C108.933 149.174 101.8 140.11 104.607 128.49C106.01 122.663 109.577 117.202 114.085 113.301C110.617 122.464 120.475 131.494 126.965 135.993C138.227 143.795 150.578 149.705 160.931 158.851C171.813 168.463 179.855 181.461 178.237 196.551C176.47 212.902 163.557 224.256 149.075 230C179.69 223.211 211.345 199.306 211.989 165.176C212.534 137.089 193.362 115.475 169.617 103.091L168.379 102.411C169.023 104.004 169.237 105.349 169.221 106.561C169.435 105.664 169.584 104.751 169.617 103.805C169.617 104.934 169.469 106.046 169.188 107.142L169.221 106.561C168.874 108.055 168.28 109.482 167.47 110.777L167.817 110.395C163.078 118.297 150.264 120.007 143.923 111.823C133.735 98.6757 144.138 84.4825 145.591 70.555C147.375 53.0915 136.476 36.1427 122.969 26C130.4 38.1016 120.607 54.1042 112.764 63.0351C105.168 71.7004 95.921 78.9547 87.5326 86.8232C78.5167 95.2893 69.8475 104.204 62.4498 114.131C47.6215 134.018 38.556 159.034 45.2271 183.835C51.8817 208.619 73.2326 224.389 97.3576 229.967Z" fill="#EE4323"/>
</svg>

<svg xmlns="http://www.w3.org/2000/svg" width="256" height="256" fill="none"><rect width="256" height="256" fill="#F4F2ED" rx="60"/><path fill="#EE4323" d="M97.358 229.967c-12.17-5.279-23.547-18.725-23.58-32.47-.034-14.99 9.412-27.723 21.169-36.072-1.42 5.361-2.18 10.275 1.32 15.073 3.254 4.465 8.951 6.623 14.334 5.461 12.566-2.772 13.144-16.667 5.697-24.768-7.365-8.017-14.498-17.081-11.691-28.701 1.403-5.827 4.97-11.288 9.478-15.189-3.468 9.163 6.39 18.193 12.88 22.692 11.262 7.802 23.613 13.712 33.966 22.858 10.882 9.612 18.924 22.61 17.306 37.7-1.767 16.351-14.68 27.705-29.162 33.449 30.615-6.789 62.27-30.694 62.914-64.824.545-28.087-18.627-49.701-42.372-62.085l-1.238-.68c.644 1.593.858 2.938.842 4.15.214-.897.363-1.81.396-2.756a13.4 13.4 0 0 1-.429 3.337l.033-.581a13.9 13.9 0 0 1-1.751 4.216l.347-.382c-4.739 7.902-17.553 9.612-23.894 1.428-10.188-13.147.215-27.34 1.668-41.268 1.784-17.464-9.115-34.412-22.622-44.555 7.431 12.102-2.362 28.104-10.205 37.035-7.596 8.665-16.843 15.92-25.231 23.788-9.016 8.466-17.686 17.381-25.083 27.308-14.829 19.887-23.894 44.903-17.223 69.704 6.655 24.784 28.006 40.554 52.13 46.132"/></svg>
